svg/Pictogram/pictograms-aem-0079-machine_runover_with_cutting_or_severing-blade.svg

<?xml version="1.0" encoding="ISO-8859-1" standalone="yes"?>
<svg height="304.014" width="304.015">
  <metadata>
    <rdf:RDF xmlns:cc="http://web.resource.org/cc/" xmlns:dc="http://purl.org/dc/elements/1.1/" xmlns:rdf="http://www.w3.org/1999/02/22-rdf-syntax-ns#">
      <cc:Work rdf:about="">
        <dc:title></dc:title>
        <dc:description></dc:description>
        <dc:subject>
          <rdf:Bag>
            <rdf:li></rdf:li>
          </rdf:Bag>
        </dc:subject>
        <dc:publisher>
          <cc:Agent rdf:about="http://www.unece.org/trans/danger/publi/ghs/pictograms.html">
            <dc:title>Source: UNECE GHS of Classification and Labeling of Chemicals, Source: AEM Pictorial Database, Source: AEM Pictorial Database, Source: AEM Pictorial Database, Source: AEM Pictorial Database</dc:title>
          </cc:Agent>
        </dc:publisher>
        <dc:creator>
          <cc:Agent>
            <dc:title></dc:title>
          </cc:Agent>
        </dc:creator>
        <dc:rights>
          <cc:Agent>
            <dc:title></dc:title>
          </cc:Agent>
        </dc:rights>
        <dc:date></dc:date>
        <dc:format>image/svg+xml</dc:format>
        <dc:type rdf:resource="http://purl.org/dc/dcmitype/StillImage"/>
        <cc:license rdf:resource="http://en.wikipedia.org/wiki/Public_domain"/>
        <dc:language>en</dc:language>
      </cc:Work>
    </rdf:RDF>
  </metadata>
  <defs><marker id="ArrowEnd" markerHeight="3" markerUnits="strokeWidth" markerWidth="4" orient="auto" refX="0" refY="5" viewBox="0 0 10 10"><path d="M 0 0 L 10 5 L 0 10 z"/></marker><marker id="ArrowStart" markerHeight="3" markerUnits="strokeWidth" markerWidth="4" orient="auto" refX="10" refY="5" viewBox="0 0 10 10"><path d="M 10 0 L 0 5 L 10 10 z"/></marker> </defs>
  <g id="g2958" transform="matrix(1.3532768,0,0,1.3532781,-53.207834,-52.192858)">
    <path d="M 253.956 132.819L 245.882 132.819L 218.569 180.881L 212.108 177.467L 213.593 174.893L 206.761 174.127L 187.644 163.624C 188.37 162.268 190.14 160.952 191.659 161.291L 201.452 162.436C 201.452 162.436 209.69 164.784 215.128 153.663L 237.784 116.202C 238.679 114.338 240.53 112.924 243.089 111.952L 253.944 110.877L 253.956 132.819" style="stroke:none; fill-rule:evenodd; fill:#000000"/>
    <path d="M 253.94 86.0024L 231.722 82.8314C 227.987 82.2684 225.417 78.7914 225.976 75.0614C 226.534 71.3314 230.011 68.7564 233.745 69.3194L 253.952 71.3384L 253.944 86.0024" style="stroke:none; fill-rule:evenodd; fill:#000000"/>
    <path d="M 106.413 107.745C 108.159 107.557 198.136 98.0534 198.136 98.0534L 198.679 97.9984C 198.679 97.9984 205.308 93.0574 207.12 91.7024C 209.144 93.2254 225.167 105.311 227.206 106.854C 226.858 107.748 225.058 112.346 222.839 118.014L 99.0424 118.014C 101.558 114.506 105.761 108.655 106.417 107.745L 106.413 107.745zM 158.858 176.788L 176.597 176.788C 176.597 176.788 186.386 150.272 187.265 147.893C 189.776 147.893 215.429 147.893 215.429 147.893L 232.026 105.487L 207.136 86.7134L 205.933 87.6084C 205.933 87.6084 197.968 93.5494 197.171 94.1434C 196.093 94.2564 104.218 103.963 104.218 103.963L 93.1044 119.436L 97.4644 176.788L 106.948 176.788L 107.444 172.795C 104.019 172.795 101.733 172.795 101.163 172.795C 100.929 169.706 97.9174 130.12 97.3004 122.006L 221.276 122.006C 217.487 131.686 213.214 142.608 212.706 143.905C 210.237 143.905 184.483 143.905 184.483 143.905C 184.483 143.905 174.69 170.416 173.815 172.795C 173.007 172.795 166.116 172.795 156.866 172.795L 158.858 176.788" style="stroke:none; fill-rule:evenodd; fill:#000000"/>
    <path d="M 127.741 217.057C 129.288 217.303 130.874 217.432 132.491 217.432C 149.093 217.432 162.597 203.924 162.597 187.327C 162.597 170.721 149.093 157.217 132.491 157.217C 115.89 157.217 102.386 170.721 102.386 187.327C 102.386 195.874 105.968 203.604 111.71 209.088L 114.71 206.436C 109.585 201.663 106.378 194.862 106.378 187.327C 106.378 172.924 118.093 161.209 132.491 161.209C 146.89 161.209 158.604 172.924 158.604 187.327C 158.604 201.725 146.89 213.44 132.491 213.44C 131.202 213.44 129.937 213.346 128.698 213.166L 127.741 217.057" style="stroke:none; fill-rule:evenodd; fill:#000000"/>
    <path d="M 251.237 138.78L 249.976 138.78C 249.976 138.78 229.792 181.229 228.765 183.389C 226.491 183.389 201.397 183.389 200.343 183.389C 199.425 182.815 181.151 171.385 181.151 171.385L 178.483 175.659L 181.87 177.772C 181.87 177.772 182.175 177.288 182.425 176.889C 185.202 178.627 199.198 187.381 199.198 187.381L 231.284 187.381C 231.284 187.381 251.472 144.932 252.499 142.768C 253.269 142.768 254.054 142.768 254.054 142.768L 254.054 138.78L 251.237 138.78" style="stroke:none; fill-rule:evenodd; fill:#000000"/>
    <path d="M 247.569 212.127L 241.882 208.413L 213.354 208.413L 213.354 206.413L 210.276 206.413L 210.276 195.202L 244.78 195.19C 247.03 195.19 248.858 196.901 248.972 199.006L 248.972 212.362L 253.956 212.362L 253.952 199.006C 253.952 194.272 249.847 190.428 244.776 190.428L 170.901 190.428C 165.835 190.428 161.73 194.272 161.73 199.006L 161.722 212.362L 166.71 212.362L 166.71 199.006C 166.823 196.901 168.647 195.19 170.901 195.19L 205.409 195.202L 205.409 206.413L 202.327 206.413L 202.327 208.413L 173.804 208.413L 168.108 212.127L 247.573 212.127" style="stroke:none; fill-rule:evenodd; fill:#000000"/>
    <path d="M 112.636 221.237C 118.187 221.237 122.69 216.737 122.69 211.182C 122.69 205.627 118.187 201.124 112.636 201.124C 107.077 201.124 102.577 205.627 102.577 211.182C 102.577 216.737 107.077 221.237 112.636 221.237" style="stroke:none; fill-rule:evenodd; fill:#000000"/>
    <path d="M 177.046 220.038L 166.983 214.639L 165.198 216.885L 173.718 224.225L 177.046 220.038" style="stroke:none; fill-rule:evenodd; fill:#000000"/>
    <path d="M 177.351 237.639C 178.69 238.331 179.772 239.342 180.581 240.405C 181.761 241.956 183.3 243.502 185.589 242.498L 180.511 227.498L 160.081 231.514C 157.964 230.944 158.21 229.467 158.401 228.729C 158.675 227.674 162.429 226.905 165.569 225.854L 162.421 216.643L 156.604 216.643C 156.167 216.643 155.952 216.241 155.812 215.823C 154.386 211.663 151.245 207.729 146.62 208.088L 138.573 209.772L 129.843 211.581C 124.562 212.682 123.983 213.768 121.573 221.213L 115.366 235.764L 107.468 241.514C 105.968 243.069 105.909 245.541 107.382 247.166C 108.917 248.862 111.534 248.991 113.23 247.456L 122.343 240.166L 126.253 231.584C 130.862 232.827 139.546 232.655 143.769 231.655L 152.901 239.026C 153.854 239.78 155.937 240.456 157.12 240.163L 171.94 236.897C 174.046 236.495 175.562 236.772 177.351 237.639" style="stroke:none; fill-rule:evenodd; fill:#000000"/>
    <path d="M 179.202 207.874C 181.339 204.885 184.522 204.37 187.046 204.768C 188.784 205.041 190.679 204.748 191.546 202.663L 178.851 196.034L 173.147 204.213L 179.202 207.874" style="stroke:none; fill-rule:evenodd; fill:#000000"/>
    <path d="M 245.831 99.3344L 241.604 95.9954C 241.503 95.8894 241.386 95.7994 241.265 95.7214L 217.655 77.0654C 216.788 76.3814 215.534 76.5264 214.851 77.3934C 214.167 78.2564 214.315 79.5104 215.179 80.1944L 218.925 83.1554C 218.827 83.4054 218.776 83.6744 218.788 83.9594L 219.468 99.2254C 219.519 100.327 220.452 101.178 221.554 101.131C 221.882 101.116 222.183 101.014 222.448 100.862C 222.8 101.702 223.687 102.221 224.62 102.061L 239.632 99.5224L 243.358 102.467C 244.226 103.151 245.48 103.002 246.163 102.139C 246.847 101.272 246.698 100.018 245.835 99.3344L 245.831 99.3344zM 223.952 98.1274C 223.765 98.1594 223.589 98.2254 223.421 98.3074L 222.89 86.2884L 235.413 96.1864L 223.952 98.1274" style="stroke:none; fill-rule:evenodd; fill:#000000"/>
    <path d="M 219.464 95.4634L 227.358 101.659" style="stroke:#000000; stroke-width:3.9912000000000001; fill:none"/>
    <path d="M 105.745 89.0144L 63.2884 89.0144C 72.9724 83.4244 90.2264 73.4634 90.2264 73.4634L 87.3904 68.5534L 51.3784 89.3464L 47.1244 91.7994L 87.3904 115.045L 90.2264 110.135C 90.2264 110.135 73.1754 100.291 63.4604 94.6824L 105.745 94.6824L 105.745 89.0144zM 58.4644 91.7994C 58.6124 91.7134 58.7804 91.6164 58.9484 91.5184L 58.9484 92.0814C 58.7804 91.9834 58.6124 91.8854 58.4644 91.7994" style="stroke:none; fill-rule:evenodd; fill:#000000"/>
    <path d="M 29.6204 265.393L 2.62042 265.393" style="stroke:#000000; stroke-width:0.5; fill:none"/>
    <path d="M 38.6204 274.393L 38.6204 301.393" style="stroke:#000000; stroke-width:0.5; fill:none"/>
    <path d="M 29.6204 38.6204L 2.62042 38.6204" style="stroke:#000000; stroke-width:0.5; fill:none"/>
    <path d="M 38.6204 29.6204L 38.6204 2.62042" style="stroke:#000000; stroke-width:0.5; fill:none"/>
    <path d="M 274.394 38.6204L 301.394 38.6204" style="stroke:#000000; stroke-width:0.5; fill:none"/>
    <path d="M 265.394 29.6204L 265.394 2.62042" style="stroke:#000000; stroke-width:0.5; fill:none"/>
    <path d="M 274.394 265.393L 301.394 265.393" style="stroke:#000000; stroke-width:0.5; fill:none"/>
    <path d="M 265.394 274.393L 265.394 301.393" style="stroke:#000000; stroke-width:0.5; fill:none"/>
  </g>
</svg>

<svg viewBox="0 0 304.01 304.01"><g transform="matrix(1.35328 0 0 1.35328-53.21-52.19)"><g fill-rule="evenodd"><path d="m253.96 132.82h-8.07l-27.313 48.06-6.461-3.414 1.485-2.574-6.832-.766-19.12-10.503c.726-1.356 2.496-2.672 4.01-2.333l9.793 1.145c0 0 8.238 2.348 13.676-8.773l22.656-37.461c.895-1.864 2.746-3.278 5.305-4.25l10.855-1.075.012 21.942"/><path d="m253.94 86l-22.22-3.171c-3.735-.563-6.305-4.04-5.746-7.77.558-3.73 4.03-6.305 7.769-5.742l20.21 2.02-.008 14.664"/><path d="m106.41 107.75c1.746-.188 91.72-9.692 91.72-9.692l.543-.055c0 0 6.629-4.941 8.441-6.296 2.024 1.523 18.05 13.609 20.09 15.15-.348.894-2.148 5.492-4.367 11.16h-123.8c2.516-3.508 6.719-9.359 7.375-10.269h-.004m52.45 69.04h17.739c0 0 9.789-26.516 10.668-28.895 2.511 0 28.16 0 28.16 0l16.597-42.41-24.89-18.774-1.203.895c0 0-7.965 5.941-8.762 6.535-1.078.113-92.95 9.82-92.95 9.82l-11.11 15.473 4.36 57.35h9.484l.496-3.993c-3.425 0-5.711 0-6.281 0-.234-3.089-3.246-42.675-3.863-50.789h123.98c-3.789 9.68-8.06 20.602-8.57 21.899-2.469 0-28.22 0-28.22 0 0 0-9.793 26.511-10.668 28.89-.808 0-7.699 0-16.949 0l1.992 3.993"/><path d="m127.74 217.06c1.547.246 3.133.375 4.75.375 16.602 0 30.11-13.508 30.11-30.1 0-16.606-13.504-30.11-30.11-30.11-16.601 0-30.11 13.504-30.11 30.11 0 8.547 3.582 16.277 9.324 21.761l3-2.652c-5.125-4.773-8.332-11.574-8.332-19.11 0-14.403 11.715-26.12 26.11-26.12 14.399 0 26.11 11.715 26.11 26.12 0 14.398-11.714 26.11-26.11 26.11-1.289 0-2.554-.094-3.793-.274l-.957 3.891"/><path d="m251.24 138.78h-1.261c0 0-20.18 42.45-21.21 44.609-2.274 0-27.368 0-28.422 0-.918-.574-19.19-12-19.19-12l-2.668 4.274 3.387 2.113c0 0 .305-.484.555-.883 2.777 1.738 16.773 10.492 16.773 10.492h32.09c0 0 20.19-42.45 21.22-44.613.77 0 1.555 0 1.555 0v-3.988h-2.817"/><path d="m247.57 212.13l-5.687-3.714h-28.528v-2h-3.078v-11.211l34.504-.012c2.25 0 4.078 1.711 4.192 3.816v13.356h4.984l-.004-13.356c0-4.734-4.105-8.578-9.176-8.578h-73.875c-5.066 0-9.171 3.844-9.171 8.578l-.008 13.356h4.988v-13.356c.113-2.105 1.937-3.816 4.191-3.816l34.508.012v11.211h-3.082v2h-28.523l-5.696 3.714h79.47"/><path d="m112.64 221.24c5.551 0 10.05-4.5 10.05-10.06 0-5.555-4.503-10.06-10.05-10.06-5.559 0-10.06 4.503-10.06 10.06 0 5.555 4.5 10.06 10.06 10.06"/><path d="m177.05 220.04l-10.06-5.399-1.785 2.246 8.52 7.34 3.328-4.187"/><path d="m177.35 237.64c1.339.692 2.421 1.703 3.23 2.766 1.18 1.551 2.719 3.097 5.01 2.093l-5.078-15-20.43 4.02c-2.117-.57-1.871-2.047-1.68-2.785.274-1.055 4.03-1.824 7.168-2.875l-3.148-9.211h-5.817c-.437 0-.652-.402-.792-.82-1.426-4.16-4.567-8.094-9.192-7.735l-8.05 1.684-8.73 1.809c-5.281 1.101-5.86 2.187-8.27 9.632l-6.207 14.551-7.898 5.75c-1.5 1.555-1.559 4.03-.086 5.652 1.535 1.696 4.152 1.825 5.848.29l9.113-7.29 3.91-8.582c4.609 1.243 13.293 1.071 17.516.071l9.132 7.371c.953.754 3.036 1.43 4.219 1.137l14.82-3.266c2.106-.402 3.622-.125 5.411.742"/><path d="m179.2 207.87c2.137-2.989 5.32-3.504 7.844-3.106 1.738.273 3.633-.02 4.5-2.105l-12.695-6.629-5.704 8.179 6.06 3.661"/><path d="m245.83 99.33l-4.227-3.339c-.101-.106-.218-.196-.339-.274l-23.61-18.656c-.867-.684-2.121-.539-2.804.328-.684.863-.536 2.117.328 2.801l3.746 2.961c-.098.25-.149.519-.137.804l.68 15.266c.051 1.102.984 1.953 2.086 1.906.328-.015.629-.117.894-.269.352.84 1.239 1.359 2.172 1.199l15.01-2.539 3.726 2.945c.868.684 2.122.535 2.805-.328.684-.867.535-2.121-.328-2.805h-.004m-21.879-1.207c-.187.032-.363.098-.531.18l-.531-12.02 12.523 9.898-11.461 1.941"/></g><path d="m219.46 95.46l7.894 6.196" fill="none" stroke="#000" stroke-width="3.991"/><path d="m105.75 89.01h-42.46c9.684-5.59 26.938-15.551 26.938-15.551l-2.836-4.91-36.01 20.793-4.254 2.453 40.27 23.25 2.836-4.91c0 0-17.05-9.844-26.766-15.453h42.28v-5.668m-47.28 2.785c.148-.086.316-.183.484-.281v.563c-.168-.098-.336-.196-.484-.282" fill-rule="evenodd"/></g></svg>
